X: 7027
T: Childgrove
R: barndance
M: 4/4
K: Eminor
|:B2|B2e2 e2f2|g4 f2e2|a3g f2e2|f3g fedc|
B2e2 e2f2|g4 f2b2|a3g fgf2|e6:|
|:ga|b2g2 g2b2|a2f2 f2a2|g2e2 efge|f2^d2 B2ga|
b2g2 g2b2|a3g fgaf|g2fe fgf2|e6:|

